archdroid-icon-theme/Archdroid-Grey/status/scalable/progress-40-symbolic.svg

<svg height="48" width="48" xmlns="http://www.w3.org/2000/svg"><path d="m39.568359 15.011719-3.458984 1.996094a14 14 0 0 1 1.890625 6.992187 14 14 0 0 1 -14 14 14 14 0 0 1 -14-14h-4a18 18 0 0 0 11.111328 16.628906 18 18 0 0 0 19.617188-3.90039 18 18 0 0 0 3.90039-19.617188 18 18 0 0 0 -1.060547-2.099609z" fill="#9E9E9E" stroke-width="3" transform=""/></svg>

<svg height="48" version="1.1" width="48" xmlns="http://www.w3.org/2000/svg"><g transform="translate(0 -1004.3622)"><path d="M39.568359 15.011719L36.109375 17.007813A14 14 0 0 1 38 24 14 14 0 0 1  24 38 14 14 0 0 1  10 24L6 24A18 18 0 0 0 17.111328 40.628906 18 18 0 0 0  36.728516 36.728516 18 18 0 0 0  40.628906 17.111328 18 18 0 0 0  39.568359 15.011719z" fill="#9E9E9E" stroke-width="3" transform="translate(0 1004.3622)"/></g></svg>
